icons/spectrum-line.svg

<svg xmlns="http://www.w3.org/2000/svg" width="24" height="24" fill="none"><g clip-path="url(#a)"><g><path fill="#121212" d="M11.388 2.00098L13.199 2.00598L14.043 2.01998C21.204 2.18398 21.981 3.53198 22 11.687L21.994 13.199L21.98 14.043C21.816 21.204 20.468 21.981 12.313 22L10.801 21.994L9.913 21.979C3.06 21.816 2.086 20.551 2.006 13.199L2 11.691L2.006 10.801L2.02 9.93598C2.185 2.88298 3.507 2.03898 11.388 2.00098ZM14.12 4.00998L10.882 3.99998L9.56 4.00998C4.071 4.09198 4.016 4.82998 4.001 11.413L4.002 13.588L4.012 14.628C4.101 19.61 4.805 19.971 10.412 19.997L13.866 19.995L14.642 19.986C19.75 19.895 19.989 19.149 20 13.109L19.997 10.366L19.985 9.31098C19.891 4.51498 19.2 4.06098 14.12 4.00798V4.00998ZM8.25 6.99998C10.5706 6.99998 12.7962 7.92185 14.4372 9.56279C16.0781 11.2037 17 13.4293 17 15.75V16.333C17 16.4206 16.9827 16.5073 16.9492 16.5882C16.9157 16.6692 16.8666 16.7427 16.8046 16.8046C16.7427 16.8666 16.6692 16.9157 16.5882 16.9492C16.5073 16.9827 16.4206 17 16.333 17H12.667C12.5794 17 12.4927 16.9827 12.4117 16.9492C12.3308 16.9157 12.2573 16.8666 12.1954 16.8046C12.1334 16.7427 12.0843 16.6692 12.0508 16.5882C12.0173 16.5073 12 16.4206 12 16.333V15.75C12 14.7554 11.6049 13.8016 10.9017 13.0983C10.1984 12.3951 9.24456 12 8.25 12H7.667C7.4901 12 7.32045 11.9297 7.19536 11.8046C7.07027 11.6795 7 11.5099 7 11.333V7.66698C7 7.29898 7.299 6.99998 7.667 6.99998H8.25Z"/></g></g><defs><clipPath id="a"><rect width="24" height="24" fill="white"/></clipPath></defs></svg>

<svg width="24" height="24" fill="none" xmlns="http://www.w3.org/2000/svg"><g clip-path="url(#a)"><path d="m11.388 2.001 1.811.005.844.014c7.161.164 7.938 1.512 7.957 9.667l-.006 1.512-.014.844c-.164 7.161-1.512 7.938-9.667 7.957l-1.512-.006-.888-.015c-6.853-.163-7.827-1.428-7.907-8.78L2 11.691l.006-.89.014-.865c.165-7.053 1.487-7.897 9.368-7.935ZM14.12 4.01 10.882 4l-1.322.01c-5.489.082-5.544.82-5.559 7.403l.001 2.175.01 1.04c.089 4.982.793 5.343 6.4 5.369l3.454-.002.776-.009c5.108-.091 5.347-.837 5.358-6.877l-.003-2.743-.012-1.055c-.094-4.796-.785-5.25-5.865-5.303v.002ZM8.25 7A8.75 8.75 0 0 1 17 15.75v.583a.667.667 0 0 1-.667.667h-3.666a.668.668 0 0 1-.667-.667v-.583A3.75 3.75 0 0 0 8.25 12h-.583A.667.667 0 0 1 7 11.333V7.667C7 7.299 7.299 7 7.667 7h.583Z" /></g><defs><clipPath id="a"><path fill="#fff" d="M0 0h24v24H0z"/></clipPath></defs></svg>
